app/frontend/images/avatar.svg

<?xml version="1.0" encoding="UTF-8"?>
<svg width="64px" height="64px" viewBox="0 0 64 64" version="1.1" xmlns="http://www.w3.org/2000/svg" xmlns:xlink="http://www.w3.org/1999/xlink">
    <!-- Generator: Sketch 60.1 (88133) - https://sketch.com -->
    <title>Group 6</title>
    <desc>Created with Sketch.</desc>
    <g id="Folders" stroke="none" stroke-width="1" fill="none" fill-rule="evenodd">
        <g id="Group-6">
            <rect id="Rectangle" fill="#D6E2EE" x="0" y="0" width="64" height="64"></rect>
            <path d="M37.3190816,38.2281143 L38.0281936,38.3596728 L38.6994398,38.4917202 C49.473918,40.6777446 51.0318221,44.3946975 51.4090181,63.9991882 L11.6866032,63.9991882 L11.7292987,62.2113055 L11.7785578,60.5630517 C12.3559606,43.2460357 14.5143578,40.2601675 25.7736478,38.2281143 L25.8700238,38.3382007 L26.0225413,38.4931937 C26.6310288,39.0798562 28.380435,40.4365132 31.5465143,40.4365132 C35.5859948,40.4365132 37.3190816,38.2281143 37.3190816,38.2281143 Z M31.5466639,11.6363636 C40.4265922,11.6363636 42.0487563,17.226711 42.0879229,24.1765069 L42.0886608,24.4410681 C42.0886608,31.5128519 37.3686026,37.2456229 31.5466639,37.2456229 C25.724426,37.2456229 21.0043678,31.5128519 21.0043678,24.4410681 L21.007366,23.9132526 C21.0865175,17.086079 22.7791397,11.6363636 31.5466639,11.6363636 Z" id="Shape" fill="#18435F"></path>
        </g>
    </g>
</svg>

<svg width="64" height="64" viewBox="0 0 64 64" xmlns="http://www.w3.org/2000/svg"><g fill="none" fill-rule="evenodd"><path fill="#D6E2EE" d="M0 0h64v64H0z"/><path d="M37.32 38.228l.708.132.671.132c10.775 2.186 12.333 5.903 12.71 25.507H11.687l.042-1.788.05-1.648c.577-17.317 2.735-20.303 13.995-22.335l.096.11.153.155c.608.587 2.357 1.944 5.524 1.944 4.039 0 5.772-2.209 5.772-2.209zm-5.773-26.592c8.88 0 10.502 5.59 10.54 12.54l.002.265c0 7.072-4.72 12.805-10.542 12.805-5.823 0-10.543-5.733-10.543-12.805l.003-.528c.08-6.827 1.772-12.277 10.54-12.277z" fill="#18435F"/></g></svg>
